!!!!SEGMENT: Distler_Jahrkreis_42_In-Gottes-Namen-fahren-wir.krn
!!!COM: Distler, Hugo
!!!CDT: 1908-1942
!!!OPR@@DE: Der Jahrkreis
!!!OPR@EN: The Year Cycle
!!!OTL@@DE: In Gottes Namen fahren wir
!!!OTL@EN: We go forth in the name of God
!!!OPS: 5
!!!ONM: 42
**kern	**text	**kern	**text	**kern	**text
*part3	*part3	*part2	*part2	*part1	*part1
*staff3	*staff3	*staff2	*staff2	*staff1	*staff1
*Ialto	*	*Isoprn	*	*Isoprn	*
*clefG2	*	*clefG2	*	*clefG2	*
*k[]	*	*k[]	*	*k[]	*
*MM120	*	*MM120	*	*MM120	*
*M4/4	*	*M4/4	*	*M4/4	*
4r	.	4r	.	8r	.
.	.	.	.	8g	In
4r	.	4r	.	4g	Got-
8r	.	8r	.	4g	tes
8G	In	8d	In	.	.
=1	=1	=1	=1	=1	=1
4A	Got-	4d	Got-	4g	Na-
4B	tes	4d	tes	4g	men
4c	Na-	4e	Na-	4a	fah-
4B	men	4d	men	4b	ren
=2	=2	=2	=2	=2	=2
(8AL	fah-	(16eLL	fah-	2cc	wir,
.	.	16f#JJ	.	.	.
8BJ)	.	4g)	.	.	.
(8cL	ren_	.	.	.	.
8dJ)	.	8f#	ren	.	.
4.e,	wir,	4g,	wir,	4r	.
.	.	4g	sein'	(8bL	sein'_
8e	sein'	.	.	8ccJ)	.
!!LO:LB:g=original
=3	=3	=3	=3	=3	=3
(8dL	Hilf'	4fn	Hilf'	4dd	Hilf'
8cJ)	.	.	.	.	.
4B	und	4g	und	4dd	und
4A	Gnad'	(8aLL	Gnad'	4cc	Gnad'
.	.	16g	.	.	.
.	.	16fJJ)	.	.	.
4e	be-	4e	be-	4g	be-
=4	=4	=4	=4	=4	=4
(8dL	geh-	4.e	geh-	4a	geh-
8cJ)	.	.	.	.	.
4B	ren	.	.	4b	ren
.	.	8d	ren	.	.
2A	wir.	4e,	wir.	4cc,	wir.
.	.	4e	Be-	4cc	Be-
=5	=5	=5	=5	=5	=5
1r	.	4a	wahr	4dd	wahr
.	.	4g	uns	4dd	uns
.	.	(8aL	heut'_	4.cc	heut'
.	.	8g	.	.	.
.	.	8fJ)	.	.	.
.	.	8e	des	8g	des
=6	=6	=6	=6	=6	=6
2r	.	4.d	Va-	4a	Va-
.	.	.	.	4g	ters
.	.	8c	ters	.	.
4r	.	4f	Guet'	4f	Guet'
8r	.	8r	.	8r	.
8d	und	8d	und	8f	und
!!LO:LB:g=original
=7	=7	=7	=7	=7	=7
4c	un-	8d	un-	4a	un-
.	.	8e	ser	.	.
4d	ser	4f	Seel'	4b-	ser
8e-	Seel'	4g	und	4cc	Seel'
8d	und	.	.	.	.
(4c	Leib_	([4a	Leib_	4cc	und
=8	=8	=8	=8	=8	=8
4d)	.	8aL]	.	4b-	Leib
.	.	8gJ)	.	.	.
4d	be-	(8fL	be-	4g	be-
.	.	8eJ)	.	.	.
2G,	huet!	4d,	huet!	2b-	huet!
.	.	(4g	Ky-	.	.
=9	=9	=9	=9	=9	=9
4d	Ky-	4.f)	.	4r	.
(8cL	ri-	.	.	4a	Ky-
8B-J)	.	8e	ri-	.	.
2c	e-	2d	e-	4g	ri-
.	.	.	.	4f	e-
=10	=10	=10	=10	=10	=10
4c	leis!	4en	leis!	4g	leis!
==	==	==	==	==	==
*-	*-	*-	*-	*-	*-
!!!YOR: Bärenreiter-Ausgabe 676
!!!YOY: 1933
!!!EFL: 42/52
!!!URL-github: https://github.com/LucasHofmann/distler/blob/main/Jahrkreis/Distler_Jahrkreis_42_In-Gottes-Namen-fahren-wir.krn
!!!URL-pdf: https://imslp.eu/files/imglnks/euimg/7/7d/IMSLP834545-PMLP518834-5-jahrkreis-EA--original-paper-600dpi.pdf#page=80 First edition, Kassel: Bärenreiter, 1933. Plate BA 676.
!!!URL-imslp: https://imslp.org/wiki/Der_Jahrkreis,_Op.5_(Distler,_Hugo)#IMSLP834545
!!!system-decoration: [(s1,s2,s3)]
!!!ENC: Lucas Hofmann
!!!END: 2023/10/30
!!!title: @{OPR@@DE}, Op. @{OPS}, Nr. @{ONM}. <i>@{OTL@@DE}</i>